!!!!SEGMENT: pl-cz--ii-87--005-006_hanel--missae-kirie-agnus.krn
!!!cenid: 18xx:1203
!!!COM: Hanel
!!!COM-rismid: pe30017835
!!!CDT: ~1800-~1899
!!!CNT:
!!!OPR: Missae Kirie
!!!OTL: Agnus
!!!OMV: 006
!!!PDT: 1888
!!!AGN: Sacred; Mass
!!!SMS-siglum: PL-CZ
!!!SMS-shelfmark: II-87
!!!SMS-shelfwork: 005-006 M
!!!SMS-variant:
!!!SMS-altvar:
!!!NIFC-rismid: 300033228
!!!URL-scan: http://repozytorium.nifc.pl/skany/pl-cz-nut--ii-87
!!!ONB-nifc: UWAGA: części Mszy: Kirie, Gloria, Credo, Sanctus, Benedictus, Agnus
!!!OMD: Adagio
!!!key: c
**kern	**kern	**text
*part2	*part1	*part1
*staff2	*staff1	*staff1
*I"Organo	*I"Voce	*
*Iorgan	*Ivox	*
*ICklav	*ICvox	*
*clefF4	*clefG2	*
*k[b-e-a-]	*k[b-e-a-]	*
*G:	*G:	*
*M3/4	*M3/4	*
=1	=1	=1
*	*^	*
2C\ 2c	2e-/ 2g	2ryy	Ag-
4C\ 4c	(>8e-/L 8g	4e-\	-nus
.	8a-/J)	.	.
=2	=2	=2	=2
2BBn\ 2Bn	(>4a-/	2d\ 2f	De-
.	4g/)	.	-i
4r	4r	4ryy	.
=3	=3	=3	=3
2C\ 2c	2e-/ 2g	2ryy	Ag-
4C\ 4c	(<8g/L	4e-\	-nus
.	8cc/J)	.	.
=4	=4	=4	=4
2D\ 2d	4cc/	2f\ 2a-	De-
.	4bn/	.	-i.
4r	4r	4ryy	.
*	*v	*v	*
!!LO:LB:g=original
=5	=5	=5
2E-\ 2c	2g\ 2cc	qui
4En\ 4c	4g\ 4b-	tol-
=6	=6	=6
*	*^	*
2F\ 2c	4b-/	2f\	-lis
.	4a-/	.	pec-
4G\ 4c	4e-/ 4g	4ryy	-ca-
=7	=7	=7	=7
2A-\ 2c	2f#X/	4d\	-ta
.	.	4e-\	.
4A-\	4f#/	4c\	mun-
*	*v	*v	*
=8	=8	=8
*^	*	*
4c/	2G\	2d/ 2g	-di
4Bn/	.	.	.
4r	4ryy	4r	.
*v	*v	*	*
=9||	=9||	=9||
*k[]	*k[]	*
!	!LO:TX:a:B:t=Andante	!
2C\ 2c	2e/ 2g	Mi-
4C\ 4c	4f/ 4a	-se-
=10	=10	=10
2C\ 2c	2e/ 2g	-re-
4C\ 4c	4g\ 4ee	-re
=11	=11	=11
2G\ 2B	(>(<2g\ 2ee	no-
4G\ 4B	4f\)) 4dd	.
!!LO:LB:g=original
=12	=12	=12
4C\ 4c	4e\ 4cc	-bis
4r	(>4g\ 4b	.
4r	4f\) 4a	.
=13	=13	=13
2C\ 2c	2e/ 2g	mi-
4C\ 4c	4f/ 4a	-se-
=14	=14	=14
2C\ 2c	2e/ 2g	-re-
!LO:TX:t=P:problem:korekta	!	!
4AA\ 4A	4e/ 4cc	-re
=15	=15	=15
2D\ 2d	(>2f#X/ 2b	no-
4D\ 4c	4f#/) 4a	.
=16||	=16||	=16||
*k[f#]	*k[f#]	*
*M4/4	*M4/4	*
*met(c)	*met(c)	*
!	!LO:TX:a:B:t=Moderato	!
4G\ 4B	8g/L	-bis
.	8b/	.
4r	8a#X/	.
.	8b/J	.
2r	8cc/L	.
.	8b/	.
.	8an/	.
.	8g/J	.
=17	=17	=17
[<2D\ [>2A	(>2c/ 2g	Do-
4D\] 4A]	4c/) 4f#	-na
4r	4r	.
!!LO:PB:g=original
=18	=18	=18
4D\ 4F# 4A	8r	.
.	(>8cc\L	.
4r	8b\	.
.	8cc\J	.
2r	8dd\L	.
.	8cc\	.
.	8b\	.
.	8a\J)	.
=19	=19	=19
2G\ 2c	(>[<2d/ 2a	Do-
4G\ 4B	4d/]) 4g	-na
4r	4r	.
=20	=20	=20
2BB\ 2B	2g\ 2dd	do-
2B\ 2f#	2a\ 2dd#X	-na
=21	=21	=21
*	*^	*
4.c\ 4.e	4.g\ 4.ee	2ryy	no-
8G#X\ 8d	8fn/ 8b	.	-bis
4A\ 4c	(<8dd/L	4e\	pa-
.	8cc/)	.	.
4C\ 4c	8b/	4e-X\	-cem
.	8a/J	.	.
=22	=22	=22	=22
*^	*	*	*
2B/	1D	4g/	2ryy	do-
.	.	16qqa/LL	.	.
.	.	16qqg/JJ	.	.
.	.	(>8f#/L	.	-na
.	.	8g/J)	.	.
2c/	.	4.b/	2f#\	no-
.	.	8a/	.	.
*v	*v	*	*	*
*	*v	*v	*
!!LO:LB:g=original
=23	=23	=23
4G\ 4B	8g/L	-bis
.	(<8d/	.
4r	8e/	.
.	8d/J	.
2r	8c#X/L	.
.	8d/	.
.	8g/	.
.	8b/J)	.
=24	=24	=24
*	*^	*
1D 1A	(>2cc/	8f#\L	pa-
.	.	8d\	.
.	.	8f#\	.
.	.	8d\J	.
.	4dd/	8f#\L	.
.	.	8d\	.
.	4cc/)	8f#\	.
.	.	8d\J	.
*	*v	*v	*
=25	=25	=25
4G\	8g/L 8b	-cem
.	8d/	.
4r	8e/	.
.	8d/J	.
2r	8c#X/L	pa-
.	8d/	.
.	8g/	.
.	8b/J	.
=26	=26	=26
*	*^	*
1D 1A	2a/	8c\L	-cem,
.	.	8d\	.
.	.	8c\	.
.	.	8d\J	.
.	4b/	8c\L	.
.	.	8d\	.
.	4a/	8c\	.
.	.	8d\J	.
!!LO:LB:g=original
=27	=27	=27	=27
*^	*	*	*
4G/	[<1GG	4g/	4B\	.
4D/	.	2b/	4d\	.
4E/	.	.	4c#X\	.
4F#/	.	4a/	4cn\	.
=28	=28	=28	=28	=28
4G/	1GG]	4g/	4B\	.
4D/	.	2b/	4d\	.
4E/	.	.	4c#X\	.
4F#/	.	4a/	4cn\	.
*v	*v	*	*	*
*	*v	*v	*
=29	=29	=29
4GG/ 4G	4B/ 4g	.
4r	4r	.
4D/	4B/ 4d 4g	.
4BB/	4B/ 4d 4g	.
=30	=30	=30
!	!LO:TX:b:t=Finis.	!
1GG;>	1B;> 1d 1g	.
!!LO:PB:g=original
==	==	==
*-	*-	*-
!!!system-decoration: [(s1,s2)]
!!!RDF**kern: < = below
!!!RDF**kern: > = above
!!!ENC: Andrzej Kubiczek
!!!END: 2020-11-08
!!!ENC: Marta Chmielewska
!!!END: 2021-11-16
